X: 851
T: Gurbet İçimde Bir Ok
C: Teoman Alpay
O: Turkey
F: http://compmusic.upf.edu/node/140
N: segah--sarki--semai--gurbet_icimde--teoman_alpay
N: makam= segah
N: form= sarki
N: usul= semai = 3/4
M: 3/4
L: 1/16
K: C _1/4B _1/4e ^f 
Q: 1/4=156
%%MIDI tuningsystem comma53
d8 B4  | d8 B4  | d12  | d12  | d4 e4 f4  | g4 e4 g4  | f12  | f12  | \
w:  ARANAĞME  |   |   |   |   |   |   |   | 
e8 c4  | e8 c4  | e12  | e12  | B4 c4 d4  | 
w:   |   |   |   |   | 
d4 e4 c4  | B12  | B12  | d8 B4  | d8 B4  | d12  | d12  | \
w:   |   |   |  ARANAĞME  |   |   |   | 
d4 e4 f4  | g4 e4 g4  | f12  | f12  | e8 c4  | 
w:   |   |   |   |   | 
e8 c4  | e12  | e12  | B4 c4 d4  | d4 e4 c4  | B12  | B12  | \
w:   |   |   |   |   |   |   | 
d4 c4 B4  | d4 c4 B4  | d12  | d12  | d4 e4 f4  | 
w:  Gur bet  i  |  çim de  bir   |  ok   |   |  her  şey  ba  | 
g4 e4 g4  | f12  | f12  | e4 f4 g4  | a4 g4 f4  | e12  | e12  | \
w:  na  ya ban  |  cı    |   |  Ha yat  öy  |  le  bir  han   |  ki   |   | 
a4 a4 g4  | f4 g4 e4  | d12  | d12  | 
w:  a cı  i  |  çim de  han  |  cı    |   | 
d4 c4 B4  | d4 c4 B4  | d12  | d12  | d4 e4 f4  | \
w:  Gur bet  i  |  çim de  bir   |  ok   |   |  her  şey  ba  | 
g4 e4 g4  | f12  | f12  | e4 f4 g4  | a4 g4 f4  | 
w:  na  ya ban  |  cı    |   |  Ha yat  öy  |  le  bir  han   | 
e12  | e12  | a4 a4 g4  | f4 g4 e4  | d12  | d12  | \
w:  ki   |   |  a cı  i  |  çim de  han  |  cı    |   | 
c4 e8  | e8 c4  | e8 c4  | e12  | d4 e4 f4  | \
w:  Sev mek   |  kor ku  |  lu  rü  |  ya   |  yal nız lık   | 
f4 g6e2  | 
w:  bü yük  a  | 
d12  | d12  | g4 f4 e4  | d4 c4 d4  | f12  | f12  | \
w:  cı    |   |  Han gi  ka  |  pı yı  çal  |  sam   |   | 
B4 c4 d4  | d4 e6c2  | B12  | B12  | c4 e8  | \
w:  kar şım da   |  bu ruk  a  |  cı    |   |  Sev mek   | 
e8 c4  | 
w:  kor ku  | 
e8 c4  | e12  | d4 e4 f4  | f4 g6e2  | d12  | d12  | \
w:  lu  rü  |  ya   |  yal nız lık   |  bü yük  a  |  cı    |   | 
g4 f4 e4  | d4 c4 d4  | f12  | f12  | B4 c4 d4  | 
w:  Han gi  ka  |  pı yı  çal  |  sam   |   |  kar şım da   | 
d4 e6c2  | B12  | B12  | d8 B4  | d8 B4  | d12  | d12  | \
w:  bu ruk  a  |  cı    |   |  ARANAĞME  |   |   |   | 
d4 e4 f4  | g4 e4 g4  | f12  | f12  | e8 c4  | 
w:   |   |   |   |   | 
e8 c4  | e12  | e12  | B4 c4 d4  | d4 e4 c4  | B12  | B12  | \
w:   |   |   |   |   |   |   | 
d8 B4  | d8 B4  | d12  | d12  | d4 e4 f4  | 
w:  ARANAĞME  |   |   |   |   | 
g4 e4 g4  | f12  | f12  | e8 c4  | e8 c4  | e12  | e12  | \
w:   |   |   |   |   |   |   | 
B4 c4 d4  | d4 e4 c4  | B12  | B12  | d4 c4 B4  | 
w:   |   |   |   |  Gur bet  i  | 
d4 c4 B4  | d12  | d12  | d4 e4 f4  | g4 e4 g4  | f12  | f12  | \
w:  çim de  bir   |  ok   |   |  her  şey  ba  |  na  ya ban  |  cı    |   | 
e4 f4 g4  | a4 g4 f4  | e12  | e12  | 
w:  Ha yat  öy  |  le  bir  han   |  ki   |   | 
a4 a4 g4  | f4 g4 e4  | d12  | d12  | d4 c4 B4  | \
w:  a cı  i  |  çim de  han  |  cı    |   |  Gur bet  i  | 
d4 c4 B4  | d12  | d12  | d4 e4 f4  | g4 e4 g4  | 
w:  çim de  bir   |  ok   |   |  her  şey  ba  |  na  ya ban  | 
f12  | f12  | e4 f4 g4  | a4 g4 f4  | e12  | e12  | \
w:  cı    |   |  Ha yat  öy  |  le  bir  han   |  ki   |   | 
a4 a4 g4  | f4 g4 e4  | d12  | d12  | c4 e8  | \
w:  a cı  i  |  çim de  han  |  cı    |   |  Sev mek   | 
e8 c4  | 
w:  kor ku  | 
e8 c4  | e12  | d4 e4 f4  | f4 g6e2  | d12  | d12  | \
w:  lu  rü  |  ya   |  yal nız lık   |  bü yük  a  |  cı    |   | 
g4 f4 e4  | d4 c4 d4  | f12  | f12  | B4 c4 d4  | 
w:  Han gi  ka  |  pı yı  çal  |  sam   |   |  kar şım da   | 
d4 e6c2  | B12  | B12  | c4 e8  | e8 c4  | e8 c4  | e12  | \
w:  bu ruk  a  |  cı    |   |  Sev mek   |  kor ku  |  lu  rü  |  ya   | 
d4 e4 f4  | f4 g6e2  | d12  | d12  | g4 f4 e4  | 
w:  yal nız lık   |  bü yük  a  |  cı    |   |  Han gi  ka  | 
d4 c4 d4  | f12  | f12  | B4 c4 d4  | d4 e6c2  | B12  | B12  | |


